packages/kaspersky-hexa-ui-icons/src/iconsSVGs/28x20/FlagCf.svg

<svg width="28" height="20" viewBox="0 0 28 20" fill="none" xmlns="http://www.w3.org/2000/svg">
<g clip-path="url(#clip0_5138_547)">
<path d="M0 2C0 0.895431 0.895431 0 2 0H26C27.1046 0 28 0.895431 28 2V18C28 19.1046 27.1046 20 26 20H2C0.895431 20 0 19.1046 0 18V2Z" fill="white"/>
<mask id="mask0_5138_547" style="mask-type:luminance" maskUnits="userSpaceOnUse" x="0" y="0" width="28" height="20">
<rect width="28" height="20" rx="2" fill="white"/>
</mask>
<g mask="url(#mask0_5138_547)">
<path d="M26 19.5V20H2V19.5H26ZM27.5 18V2C27.5 1.17157 26.8284 0.5 26 0.5H2C1.17157 0.5 0.5 1.17157 0.5 2V18C0.5 18.8284 1.17157 19.5 2 19.5V20C0.895431 20 0 19.1046 0 18V2C2.57702e-07 0.895431 0.895431 0 2 0H26C27.1046 0 28 0.895431 28 2V18C28 19.1046 27.1046 20 26 20V19.5C26.8284 19.5 27.5 18.8284 27.5 18Z" fill="#F5F5F5"/>
<path fill-rule="evenodd" clip-rule="evenodd" d="M0 5.33333H28V0H0V5.33333Z" fill="#083D96"/>
<path fill-rule="evenodd" clip-rule="evenodd" d="M0 14.6667H28V9.33334H0V14.6667Z" fill="#37AE39"/>
<path fill-rule="evenodd" clip-rule="evenodd" d="M0 20H28V14.6667H0V20Z" fill="#FFD13F"/>
<path fill-rule="evenodd" clip-rule="evenodd" d="M10.6667 20H17.3333V0H10.6667V20Z" fill="#E42346"/>
<path fill-rule="evenodd" clip-rule="evenodd" d="M4.66666 3.44666L3.49109 4.28469L3.92483 2.90769L2.76454 2.04862L4.20818 2.03562L4.66666 0.666656L5.12513 2.03562L6.56877 2.04862L5.40848 2.90769L5.84223 4.28469L4.66666 3.44666Z" fill="#FFD03B"/>
</g>
</g>
<defs>
<clipPath id="clip0_5138_547">
<rect width="28" height="20" fill="white"/>
</clipPath>
</defs>
</svg>

<svg xmlns="http://www.w3.org/2000/svg" width="28" height="20" fill="none" viewBox="0 0 28 20"><g clip-path="url(#a)"><path fill="#fff" d="M0 2C0 .8954.8954 0 2 0h24c1.1046 0 2 .8954 2 2v16c0 1.1046-.8954 2-2 2H2c-1.1046 0-2-.8954-2-2z"/><mask id="b" width="28" height="20" x="0" y="0" maskUnits="userSpaceOnUse" style="mask-type:luminance"><rect width="28" height="20" fill="#fff" rx="2"/></mask><g mask="url(#b)"><path fill="#f5f5f5" d="M26 19.5v.5H2v-.5zm1.5-1.5V2c0-.8284-.6716-1.5-1.5-1.5H2C1.1716.5.5 1.1716.5 2v16c0 .8284.6716 1.5 1.5 1.5v.5c-1.1046 0-2-.8954-2-2V2C0 .8954.8954 0 2 0h24c1.1046 0 2 .8954 2 2v16c0 1.1046-.8954 2-2 2v-.5c.8284 0 1.5-.6716 1.5-1.5"/><path fill="#083d96" fill-rule="evenodd" d="M0 5.3333h28V0H0z" clip-rule="evenodd"/><path fill="#37ae39" fill-rule="evenodd" d="M0 14.6667h28V9.3333H0z" clip-rule="evenodd"/><path fill="#ffd13f" fill-rule="evenodd" d="M0 20h28v-5.3333H0z" clip-rule="evenodd"/><path fill="#e42346" fill-rule="evenodd" d="M10.6667 20h6.6666V0h-6.6666z" clip-rule="evenodd"/><path fill="#ffd03b" fill-rule="evenodd" d="m4.6667 3.4467-1.1756.838.4337-1.377-1.1603-.859 1.4437-.013.4585-1.369.4584 1.369 1.4437.013-1.1603.859.4337 1.377z" clip-rule="evenodd"/></g></g><defs><clipPath id="a"><path fill="#fff" d="M0 0h28v20H0z"/></clipPath></defs></svg>
